build/img/sprite/icon-vk.svg

<svg width="32" height="32" viewBox="0 0 32 32" fill="none" xmlns="http://www.w3.org/2000/svg">
<rect width="32" height="32" rx="5" fill="currentColor"/>
<path fill-rule="evenodd" clip-rule="evenodd" d="M23.9857 11.9221C24.1161 11.5149 23.9857 11.2189 23.4078 11.2189H21.4879C21.0033 11.2189 20.7796 11.478 20.6491 11.7555C20.6491 11.7555 19.6613 14.1242 18.2819 15.6601C17.8345 16.1043 17.6295 16.2523 17.3872 16.2523C17.2567 16.2523 17.0889 16.1043 17.0889 15.6972V11.9036C17.0889 11.4225 16.9398 11.2004 16.5297 11.2004H13.5101C13.2119 11.2004 13.0255 11.4225 13.0255 11.6445C13.0255 12.1071 13.7152 12.2181 13.7897 13.5135V16.3264C13.7897 16.937 13.6779 17.0481 13.4356 17.0481C12.7832 17.0481 11.1988 14.6609 10.2481 11.9406C10.0617 11.4039 9.87533 11.2004 9.39069 11.2004H7.4522C6.89301 11.2004 6.7998 11.4594 6.7998 11.737C6.7998 12.2367 7.4522 14.7534 9.83805 18.0844C11.4225 20.3605 13.6779 21.5819 15.7096 21.5819C16.9398 21.5819 17.0889 21.3043 17.0889 20.8417V19.1206C17.0889 18.5655 17.2008 18.4729 17.5922 18.4729C17.8718 18.4729 18.3751 18.621 19.5121 19.7129C20.8169 21.0082 21.0405 21.6004 21.7675 21.6004H23.6874C24.2466 21.6004 24.5076 21.3228 24.3585 20.7861C24.1907 20.2495 23.5569 19.4722 22.7368 18.547C22.2894 18.0289 21.6184 17.4552 21.4133 17.1776C21.1337 16.8075 21.2083 16.6594 21.4133 16.3264C21.3947 16.3264 23.7433 13.0324 23.9857 11.9221Z" fill="white"/>
</svg>

<svg width="32" height="32" fill="none" xmlns="http://www.w3.org/2000/svg"><rect width="32" height="32" rx="5" fill="currentColor"/><path fill-rule="evenodd" clip-rule="evenodd" d="M23.986 11.922c.13-.407 0-.703-.578-.703h-1.92c-.485 0-.708.259-.839.537 0 0-.988 2.368-2.367 3.904-.448.444-.652.592-.895.592-.13 0-.298-.148-.298-.555v-3.793c0-.482-.15-.704-.56-.704H13.51c-.298 0-.485.223-.485.445 0 .462.69.573.765 1.869v2.812c0 .611-.112.722-.354.722-.653 0-2.237-2.387-3.188-5.107-.186-.537-.373-.74-.857-.74H7.452c-.559 0-.652.258-.652.536 0 .5.652 3.016 3.038 6.347 1.585 2.276 3.84 3.498 5.872 3.498 1.23 0 1.379-.278 1.379-.74V19.12c0-.555.112-.648.503-.648.28 0 .783.148 1.92 1.24 1.305 1.295 1.529 1.887 2.255 1.887h1.92c.56 0 .82-.277.671-.814-.167-.537-.801-1.314-1.621-2.239-.448-.518-1.119-1.092-1.324-1.37-.28-.37-.205-.518 0-.85-.018 0 2.33-3.295 2.573-4.405z" fill="#fff"/></svg>
